X: 40287
T: Tolka, The
R: polka
M: 2/4
K: Adorian
|:e>f g|d e>f g|fd g>e|dc B(d|
d/) c/B cg|de cA|B/c/B/A/ Gd|BA A2:|

